img/common/icon_index_02.svg

<svg height="24" viewBox="0 0 30 24" width="30" xmlns="http://www.w3.org/2000/svg"><path d="m30 6h-24a3 3 0 0 0 -2.985 3l-.015 18a3.009 3.009 0 0 0 3 3h24a3.009 3.009 0 0 0 3-3v-18a3.009 3.009 0 0 0 -3-3zm0 6-12 7.5-12-7.5v-3l12 7.5 12-7.5z" fill="#fff" transform="translate(-3 -6)"/></svg>

<svg xmlns="http://www.w3.org/2000/svg" width="30" height="24" viewBox="0 0 30 24">
  <path id="Icon_material-email" data-name="Icon material-email" d="M30,6H6A3,3,0,0,0,3.015,9L3,27a3.009,3.009,0,0,0,3,3H30a3.009,3.009,0,0,0,3-3V9A3.009,3.009,0,0,0,30,6Zm0,6L18,19.5,6,12V9l12,7.5L30,9Z" transform="translate(-3 -6)" fill="#fff"/>
</svg>
